X: 31018
T: Padded Room, The
R: jig
M: 6/8
K: Eminor
|:A2B cde|dcA AGE|GED EAc|BAG A(3Bcd|
efg abe|bag edB|dBG ABe|dBG A2E:|

